build/img/index/user-icon.svg

<svg width="24" height="24" viewBox="0 0 24 24" fill="none" xmlns="http://www.w3.org/2000/svg">
<path opacity="0.5" d="M8.4725 6.73684C8.4725 9.34842 10.485 11.4737 12.9579 11.4737C15.4309 11.4737 17.4434 9.34842 17.4434 6.73684C17.4434 4.12526 15.4309 2 12.9579 2C10.485 2 8.4725 4.12526 8.4725 6.73684ZM20.932 22H21.9288V20.9474C21.9288 16.8853 18.798 13.5789 14.9515 13.5789H10.9644C7.1169 13.5789 3.98706 16.8853 3.98706 20.9474V22H20.932Z" fill="#192144"/>
</svg>

<svg width="24" height="24" fill="none" xmlns="http://www.w3.org/2000/svg"><path opacity=".5" d="M8.473 6.737c0 2.611 2.012 4.737 4.485 4.737 2.473 0 4.485-2.126 4.485-4.737C17.443 4.125 15.431 2 12.958 2c-2.473 0-4.486 2.125-4.486 4.737zM20.931 22h.997v-1.053c0-4.062-3.131-7.368-6.977-7.368h-3.988c-3.847 0-6.977 3.306-6.977 7.368V22h16.945z" fill="#192144"/></svg>
